src/assets/pictos/home.svg

<svg fill="none" height="27" viewBox="0 0 27 27" width="27" xmlns="http://www.w3.org/2000/svg" xmlns:xlink="http://www.w3.org/1999/xlink"><clipPath id="a"><path d="m0 0h27v27h-27z"/></clipPath><g clip-path="url(#a)"><path d="m26.2715 11.7437c-.0006-.0006-.0012-.0012-.0018-.0019l-11.0139-11.013406c-.4694-.469666-1.0936-.728394-1.7575-.728394s-1.2881.258522-1.7578.728188l-11.008066 11.007912c-.003707.0037-.007415.0076-.011123.0113-.964051.9696-.962403 2.5428.004738 3.5099.441861.4421 1.025441.6981 1.649391.7249.02534.0025.05088.0037.07663.0037h.43897v8.1053c0 1.6038 1.30497 2.9088 2.90925 2.9088h4.30901c.4367 0 .791-.3541.791-.791v-6.3545c0-.7319.5953-1.3272 1.3272-1.3272h2.5415c.7319 0 1.3273.5953 1.3273 1.3272v6.3545c0 .4369.3541.791.791.791h4.309c1.6042 0 2.9092-1.305 2.9092-2.9088v-8.1053h.4071c.6637 0 1.2878-.2585 1.7577-.7282.9682-.9687.9686-2.5446.0012-3.514z" fill="#fff"/></g></svg>

<svg width="27" height="27" viewBox="0 0 27 27" fill="none" xmlns="http://www.w3.org/2000/svg">
<g clip-path="url(#clip0)">
<path d="M26.2715 11.7437C26.2709 11.7431 26.2703 11.7425 26.2697 11.7418L15.2558 0.728394C14.7864 0.258728 14.1622 0 13.4983 0C12.8344 0 12.2102 0.258522 11.7405 0.728188L0.732434 11.7361C0.728727 11.7398 0.725019 11.7437 0.721311 11.7474C-0.24274 12.717 -0.241092 14.2902 0.726049 15.2573C1.16791 15.6994 1.75149 15.9554 2.37544 15.9822C2.40078 15.9847 2.42632 15.9859 2.45207 15.9859H2.89104V24.0912C2.89104 25.695 4.19601 27 5.80029 27H10.1093C10.546 27 10.9003 26.6459 10.9003 26.209V19.8545C10.9003 19.1226 11.4956 18.5273 12.2275 18.5273H14.769C15.5009 18.5273 16.0963 19.1226 16.0963 19.8545V26.209C16.0963 26.6459 16.4504 27 16.8873 27H21.1963C22.8005 27 24.1055 25.695 24.1055 24.0912V15.9859H24.5126C25.1763 15.9859 25.8004 15.7274 26.2703 15.2577C27.2385 14.289 27.2389 12.7131 26.2715 11.7437Z" fill="white"/>
</g>
<defs>
<clipPath id="clip0">
<rect width="27" height="27" fill="white"/>
</clipPath>
</defs>
</svg>
